icons/ui_user_profile.svg

<svg width="48" height="48" viewBox="0 0 48 48" fill="none" xmlns="http://www.w3.org/2000/svg">
<path fill-rule="evenodd" clip-rule="evenodd" d="M24 27C28.4183 27 32 23.4183 32 19C32 14.5817 28.4183 11 24 11C19.5817 11 16 14.5817 16 19C16 23.4183 19.5817 27 24 27ZM24 25C27.3137 25 30 22.3137 30 19C30 15.6863 27.3137 13 24 13C20.6863 13 18 15.6863 18 19C18 22.3137 20.6863 25 24 25Z" fill="black"/>
<path fill-rule="evenodd" clip-rule="evenodd" d="M44 24C44 35.0457 35.0457 44 24 44C12.9543 44 4 35.0457 4 24C4 12.9543 12.9543 4 24 4C35.0457 4 44 12.9543 44 24ZM33.6305 39.2097C30.8457 40.9768 27.5423 42 24 42C20.3721 42 16.9948 40.9267 14.1685 39.0803C13.9285 38.7804 13.6852 38.4703 13.4386 38.15C13.1554 37.7823 13 37.32 13 36.8449C13 35.7682 13.7739 34.8648 14.8088 34.7137C21.6538 33.7141 26.367 33.8003 33.221 34.749C34.2376 34.8897 35 35.77 35 36.8177C35 37.2976 34.8349 37.7641 34.537 38.1273C34.2296 38.5021 33.9276 38.8628 33.6305 39.2097ZM36.985 36.4656C36.8253 34.5938 35.4036 33.032 33.4952 32.7679C26.4791 31.7968 21.5747 31.7044 14.5198 32.7347C12.5995 33.0151 11.1855 34.5913 11.0169 36.4675C7.90982 33.2328 6 28.8394 6 24C6 14.0589 14.0589 6 24 6C33.9411 6 42 14.0589 42 24C42 28.8385 40.091 33.231 36.985 36.4656Z" fill="black"/>
</svg>

<svg
  xmlns="http://www.w3.org/2000/svg"
  width="24"
  height="24"
  viewBox="0 0 24 24"
  fill="none"
  stroke="currentColor"
  stroke-width="2"
  stroke-linecap="round"
  stroke-linejoin="round"
>
  <path
    fill-rule="evenodd"
    d="M24 27a8 8 0 1 0 0-16 8 8 0 0 0 0 16m0-2a6 6 0 1 0 0-12 6 6 0 0 0 0 12"
    clip-rule="evenodd"
  />
  <path
    fill-rule="evenodd"
    d="M44 24c0 11.046-8.954 20-20 20S4 35.046 4 24 12.954 4 24 4s20 8.954 20 20M33.63 39.21A17.9 17.9 0 0 1 24 42a17.9 17.9 0 0 1-9.831-2.92q-.36-.45-.73-.93A2.14 2.14 0 0 1 13 36.845c0-1.077.774-1.98 1.809-2.131 6.845-1 11.558-.914 18.412.035A2.08 2.08 0 0 1 35 36.818c0 .48-.165.946-.463 1.31q-.461.561-.907 1.082m3.355-2.744c-.16-1.872-1.581-3.434-3.49-3.698-7.016-.971-11.92-1.064-18.975-.033-1.92.28-3.335 1.856-3.503 3.733A17.94 17.94 0 0 1 6 24c0-9.941 8.059-18 18-18s18 8.059 18 18a17.94 17.94 0 0 1-5.015 12.466"
    clip-rule="evenodd"
  />
</svg>
